X: 8
T: Concertina, The
Z: Benjamin Glauser
S: https://thesession.org/tunes/18#setting47029
R: reel
M: 4/4
L: 1/8
K: Dmaj
|:A2FA BAFA|A2FA BAFA|B2cA B2cA|B2cA BAFA|
A2FA BAFA|A2FA BAFE|FABc d2dB|AFEF D4:|
|:Addd Addd|Addd BAFA|B2cA B2cA|B2cA BAFA|
Addd Addd|Addd BAFE|FABc d2dB|AFEF D4:|

